img/svg/intro-publications-decor.svg

<svg width="966" height="508" viewBox="0 0 966 508" fill="none" xmlns="http://www.w3.org/2000/svg">
<mask id="mask0" mask-type="alpha" maskUnits="userSpaceOnUse" x="0" y="0" width="966" height="508">
<rect width="966" height="508" fill="#F9F7EF"/>
</mask>
<g mask="url(#mask0)">
<g opacity="0.1">
<g clip-path="url(#clip0)">
<path d="M935.406 -303.477L933.846 -298.485L860.215 -323.133L779.563 -296.145L698.912 -323.133L618.104 -296.301L537.297 -323.133L456.646 -296.145L375.994 -323.133L302.363 -298.485L300.803 -303.477L375.994 -328.437L456.646 -301.761L537.453 -328.593L618.104 -301.605L698.756 -328.593L779.563 -301.761L860.215 -328.437L935.406 -303.477Z" fill="#B69D6D"/>
<path d="M959.586 -277.737L961.302 -272.901L940.866 -265.881L860.215 -292.869L779.563 -265.881L698.912 -292.869L618.104 -266.037L537.297 -292.869L456.646 -265.881L375.994 -292.869L295.343 -265.881L274.907 -272.901L276.623 -277.737L295.343 -271.497L375.994 -298.173L456.646 -271.497L537.453 -298.329L618.104 -271.341L698.756 -298.329L779.563 -271.497L860.215 -298.173L940.866 -271.497L959.586 -277.737Z" fill="#B69D6D"/>
<path d="M982.362 -254.961L984.078 -250.126L940.866 -235.618L860.215 -262.605L779.563 -235.618L698.912 -262.605L618.104 -235.774L537.297 -262.605L456.646 -235.618L375.994 -262.605L295.343 -235.618L252.131 -250.126L253.847 -254.961L295.343 -241.234L375.994 -267.909L456.646 -241.234L537.453 -268.065L618.104 -241.078L698.756 -268.065L779.563 -241.234L860.215 -267.909L940.866 -241.234L982.362 -254.961Z" fill="#B69D6D"/>
<path d="M1004.98 -232.342L1006.7 -227.506L940.866 -205.354L860.215 -232.342L779.563 -205.354L698.912 -232.342L618.104 -205.51L537.297 -232.342L456.646 -205.354L375.994 -232.342L295.343 -205.354L229.511 -227.506L231.227 -232.342L295.343 -210.97L376.15 -237.802L456.646 -210.97L537.453 -237.802L618.104 -210.814L698.756 -237.802L779.563 -210.97L860.059 -237.802L940.866 -210.97L1004.98 -232.342Z" fill="#B69D6D"/>
<path d="M1036.34 -202.546L1034.62 -197.71L1021.52 -202.078L940.866 -175.09L860.215 -202.078L779.563 -175.09L698.912 -202.078L618.104 -175.246L537.297 -202.078L456.646 -175.09L375.994 -202.078L295.343 -175.09L214.691 -202.078L201.588 -197.71L199.871 -202.546L214.535 -207.538L295.343 -180.706L376.15 -207.538L456.646 -180.706L537.453 -207.538L618.104 -180.55L698.756 -207.538L779.563 -180.706L860.059 -207.538L940.866 -180.706L1021.67 -207.538L1036.34 -202.546Z" fill="#B69D6D"/>
<path d="M1072.22 -160.426L1070.66 -155.434L1021.52 -171.814L940.866 -144.826L860.215 -171.814L779.563 -144.826L698.912 -171.814L618.104 -144.982L537.297 -171.814L456.646 -144.826L375.994 -171.814L295.343 -144.826L214.691 -171.814L165.552 -155.434L163.992 -160.426L214.535 -177.274L295.343 -150.442L376.15 -177.274L456.646 -150.442L537.453 -177.274L618.104 -150.286L698.756 -177.274L779.563 -150.442L860.059 -177.274L940.866 -150.442L1021.67 -177.274L1072.22 -160.426Z" fill="#B69D6D"/>
<path d="M1049.44 -137.65L1048.04 -132.814L1021.52 -141.55L940.866 -114.562L860.215 -141.55L779.563 -114.562L698.912 -141.55L618.104 -114.718L537.297 -141.55L456.646 -114.562L375.994 -141.55L295.343 -114.562L214.691 -141.55L188.172 -132.814L186.768 -137.65L214.535 -147.01L295.343 -120.178L376.15 -147.01L456.646 -120.178L537.453 -147.01L618.104 -120.022L698.756 -147.01L779.563 -120.178L860.059 -147.01L940.866 -120.178L1021.67 -147.01L1049.44 -137.65Z" fill="#B69D6D"/>
<path d="M1026.82 -115.03L1025.26 -110.038L1021.52 -111.286L940.866 -84.2985L860.215 -111.286L779.563 -84.2985L698.912 -111.286L618.104 -84.4546L537.297 -111.286L456.646 -84.2985L375.994 -111.286L295.343 -84.2985L214.691 -111.286L210.948 -110.038L209.387 -115.03L214.535 -116.746L295.343 -89.9145L376.15 -116.746L456.646 -89.9145L537.453 -116.746L618.104 -89.7585L698.756 -116.746L779.563 -89.9145L860.059 -116.746L940.866 -89.9145L1021.67 -116.746L1026.82 -115.03Z" fill="#B69D6D"/>
<path d="M984.234 -74.0027L985.95 -69.1667L940.866 -54.0348L860.215 -81.0227L779.407 -54.1909L698.912 -81.0227L618.104 -54.1908L537.297 -81.0227L456.802 -54.1909L375.994 -81.0227L295.343 -54.0348L250.259 -69.1667L251.975 -74.0027L295.343 -59.6508L376.15 -86.4826L456.646 -59.6508L537.453 -86.4826L618.104 -59.4948L698.756 -86.4826L779.563 -59.6508L860.059 -86.4826L940.866 -59.6508L984.234 -74.0027Z" fill="#B69D6D"/>
<path d="M941.022 -29.231L939.462 -24.239L860.215 -50.7588L779.407 -23.927L698.912 -50.7588L618.104 -23.927L537.297 -50.7588L456.802 -23.927L375.994 -50.7588L296.747 -24.239L295.187 -29.231L376.15 -56.2188L456.646 -29.387L537.453 -56.2188L618.104 -29.231L698.756 -56.2188L779.563 -29.387L860.059 -56.2188L941.022 -29.231Z" fill="#B69D6D"/>
<path d="M918.402 -6.61116L916.842 -1.61918L860.215 -20.495L779.407 6.33676L698.912 -20.495L618.104 6.33677L537.297 -20.495L456.802 6.33676L375.994 -20.495L319.367 -1.61918L317.807 -6.61116L376.15 -25.955L456.646 0.876808L537.453 -25.955L618.104 1.0328L698.756 -25.955L779.563 0.876808L860.059 -25.955L918.402 -6.61116Z" fill="#B69D6D"/>
<path d="M895.626 16.1647L894.066 21.1567L860.215 9.76875L779.407 36.6005L698.912 9.76874L618.104 36.6005L537.297 9.76874L456.802 36.6005L375.994 9.76875L342.143 21.1567L340.583 16.1647L376.15 4.30877L456.646 31.1406L537.453 4.30879L618.104 31.2966L698.756 4.30879L779.563 31.1406L860.059 4.30877L895.626 16.1647Z" fill="#B69D6D"/>
<path d="M873.007 38.7845L871.447 43.7765L860.215 40.0325L779.407 66.8643L698.912 40.0325L618.104 66.8643L537.297 40.0325L456.802 66.8643L375.994 40.0325L364.762 43.7765L363.202 38.7845L376.15 34.5726L456.646 61.4044L537.453 34.5726L618.104 61.5604L698.756 34.5726L779.563 61.4044L860.059 34.5726L873.007 38.7845Z" fill="#B69D6D"/>
<path d="M838.063 72.1682L839.623 77.1602L779.407 97.128L698.912 70.2962L618.104 97.128L537.297 70.2962L456.802 97.128L396.586 77.1602L398.146 72.1682L456.646 91.6681L537.453 64.8363L618.104 91.8241L698.756 64.8363L779.563 91.6681L838.063 72.1682Z" fill="#B69D6D"/>
<path d="M792.667 117.564L794.227 122.556L779.407 127.392L698.912 100.56L618.104 127.392L537.297 100.56L456.802 127.392L441.982 122.556L443.542 117.564L456.646 121.932L537.453 95.1001L618.104 122.088L698.756 95.1001L779.563 121.932L792.667 117.564Z" fill="#B69D6D"/>
<path d="M764.587 147.204L763.027 152.196L698.912 130.824L618.104 157.656L537.297 130.824L473.182 152.196L471.622 147.204L537.453 125.364L618.104 152.352L698.756 125.364L764.587 147.204Z" fill="#B69D6D"/>
<path d="M741.812 169.98L740.252 174.972L698.912 161.088L618.104 187.919L537.297 161.088L495.957 174.972L494.397 169.98L537.453 155.628L618.104 182.615L698.756 155.628L741.812 169.98Z" fill="#B69D6D"/>
<path d="M719.192 192.599L717.632 197.591L698.912 191.351L618.104 218.183L537.297 191.351L518.577 197.591L517.017 192.599L537.453 185.891L618.104 212.879L698.756 185.891L719.192 192.599Z" fill="#B69D6D"/>
<path d="M691.736 218.495L693.452 223.331L618.104 248.447L542.757 223.331L544.473 218.495L618.104 243.143L691.736 218.495Z" fill="#B69D6D"/>
<path d="M646.34 263.891L648.056 268.727L618.104 278.711L588.153 268.727L589.869 263.891L618.104 273.407L646.34 263.891Z" fill="#B69D6D"/>
</g>
</g>
</g>
<defs>
<clipPath id="clip0">
<rect x="618.104" y="298.679" width="650.155" height="650.155" transform="rotate(-135 618.104 298.679)" fill="white"/>
</clipPath>
</defs>
</svg>

<svg width="966" height="508" viewBox="0 0 966 508" fill="none" xmlns="http://www.w3.org/2000/svg"><mask id="mask0" maskUnits="userSpaceOnUse" x="0" y="0" width="966" height="508"><path fill="#F9F7EF" d="M0 0h966v508H0z"/></mask><g clip-path="url(#clip0)" fill="#B69D6D" opacity=".1" mask="url(#mask0)"><path d="M935.406-303.477l-1.56 4.992-73.631-24.648-80.652 26.988-80.651-26.988-80.808 26.832-80.807-26.832-80.651 26.988-80.652-26.988-73.631 24.648-1.56-4.992 75.191-24.96 80.652 26.676 80.807-26.832 80.651 26.988 80.652-26.988 80.807 26.832 80.652-26.676 75.191 24.96z"/><path d="M959.586-277.737l1.716 4.836-20.436 7.02-80.651-26.988-80.652 26.988-80.651-26.988-80.808 26.832-80.807-26.832-80.651 26.988-80.652-26.988-80.651 26.988-20.436-7.02 1.716-4.836 18.72 6.24 80.651-26.676 80.652 26.676 80.807-26.832 80.651 26.988 80.652-26.988 80.807 26.832 80.652-26.676 80.651 26.676 18.72-6.24z"/><path d="M982.362-254.961l1.716 4.835-43.212 14.508-80.651-26.987-80.652 26.987-80.651-26.987-80.808 26.831-80.807-26.831-80.651 26.987-80.652-26.987-80.651 26.987-43.212-14.508 1.716-4.835 41.496 13.727 80.651-26.675 80.652 26.675 80.807-26.831 80.651 26.987 80.652-26.987 80.807 26.831 80.652-26.675 80.651 26.675 41.496-13.727z"/><path d="M1004.98-232.342l1.72 4.836-65.834 22.152-80.651-26.988-80.652 26.988-80.651-26.988-80.808 26.832-80.807-26.832-80.651 26.988-80.652-26.988-80.651 26.988-65.832-22.152 1.716-4.836 64.116 21.372 80.807-26.832 80.496 26.832 80.807-26.832 80.651 26.988 80.652-26.988 80.807 26.832 80.496-26.832 80.807 26.832 64.114-21.372z"/><path d="M1036.34-202.546l-1.72 4.836-13.1-4.368-80.654 26.988-80.651-26.988-80.652 26.988-80.651-26.988-80.808 26.832-80.807-26.832-80.651 26.988-80.652-26.988-80.651 26.988-80.652-26.988-13.103 4.368-1.717-4.836 14.664-4.992 80.808 26.832 80.807-26.832 80.496 26.832 80.807-26.832 80.651 26.988 80.652-26.988 80.807 26.832 80.496-26.832 80.807 26.832 80.804-26.832 14.67 4.992z"/><path d="M1072.22-160.426l-1.56 4.992-49.14-16.38-80.654 26.988-80.651-26.988-80.652 26.988-80.651-26.988-80.808 26.832-80.807-26.832-80.651 26.988-80.652-26.988-80.651 26.988-80.652-26.988-49.139 16.38-1.56-4.992 50.543-16.848 80.808 26.832 80.807-26.832 80.496 26.832 80.807-26.832 80.651 26.988 80.652-26.988 80.807 26.832 80.496-26.832 80.807 26.832 80.804-26.832 50.55 16.848z"/><path d="M1049.44-137.65l-1.4 4.836-26.52-8.736-80.654 26.988-80.651-26.988-80.652 26.988-80.651-26.988-80.808 26.832-80.807-26.832-80.651 26.988-80.652-26.988-80.651 26.988-80.652-26.988-26.519 8.736-1.404-4.836 27.767-9.36 80.808 26.832 80.807-26.832 80.496 26.832 80.807-26.832 80.651 26.988 80.652-26.988 80.807 26.832 80.496-26.832 80.807 26.832 80.804-26.832 27.77 9.36z"/><path d="M1026.82-115.03l-1.56 4.992-3.74-1.248-80.654 26.987-80.651-26.987-80.652 26.987-80.651-26.987-80.808 26.831-80.807-26.831-80.651 26.987-80.652-26.987-80.651 26.987-80.652-26.987-3.743 1.248-1.561-4.992 5.148-1.716 80.808 26.831 80.807-26.831 80.496 26.831 80.807-26.831 80.651 26.987 80.652-26.987 80.807 26.831 80.496-26.831 80.807 26.831 80.804-26.831 5.15 1.716z"/><path d="M984.234-74.003l1.716 4.836-45.084 15.132-80.651-26.988-80.808 26.832-80.495-26.832-80.808 26.832-80.807-26.832-80.495 26.832-80.808-26.832-80.651 26.988-45.084-15.132 1.716-4.836 43.368 14.352 80.807-26.832 80.496 26.832 80.807-26.832 80.651 26.988 80.652-26.988 80.807 26.832 80.496-26.832 80.807 26.832 43.368-14.352z"/><path d="M941.022-29.231l-1.56 4.992-79.247-26.52-80.808 26.832-80.495-26.832-80.808 26.832-80.807-26.832-80.495 26.832-80.808-26.832-79.247 26.52-1.56-4.992 80.963-26.988 80.496 26.832 80.807-26.832 80.651 26.988 80.652-26.988 80.807 26.832 80.496-26.832 80.963 26.988z"/><path d="M918.402-6.611l-1.56 4.992-56.627-18.876-80.808 26.832-80.495-26.832-80.808 26.832-80.807-26.832-80.495 26.832-80.808-26.832-56.627 18.876-1.56-4.992 58.343-19.344L456.646.877l80.807-26.832 80.651 26.988 80.652-26.988L779.563.877l80.496-26.832 58.343 19.344z"/><path d="M895.626 16.165l-1.56 4.992-33.851-11.388L779.407 36.6 698.912 9.77 618.104 36.6 537.297 9.77 456.802 36.6 375.994 9.77l-33.851 11.388-1.56-4.992L376.15 4.309l80.496 26.832 80.807-26.832 80.651 26.988 80.652-26.988 80.807 26.832 80.496-26.832 35.567 11.856z"/><path d="M873.007 38.785l-1.56 4.992-11.232-3.745-80.808 26.832-80.495-26.832-80.808 26.832-80.807-26.832-80.495 26.832-80.808-26.832-11.232 3.745-1.56-4.992 12.948-4.212 80.496 26.831 80.807-26.831 80.651 26.987 80.652-26.987 80.807 26.831 80.496-26.831 12.948 4.212z"/><path d="M838.063 72.168l1.56 4.992-60.216 19.968-80.495-26.832-80.808 26.832-80.807-26.832-80.495 26.832-60.216-19.968 1.56-4.992 58.5 19.5 80.807-26.832 80.651 26.988 80.652-26.988 80.807 26.832 58.5-19.5z"/><path d="M792.667 117.564l1.56 4.992-14.82 4.836-80.495-26.832-80.808 26.832-80.807-26.832-80.495 26.832-14.82-4.836 1.56-4.992 13.104 4.368L537.453 95.1l80.651 26.988L698.756 95.1l80.807 26.832 13.104-4.368z"/><path d="M764.587 147.204l-1.56 4.992-64.115-21.372-80.808 26.832-80.807-26.832-64.115 21.372-1.56-4.992 65.831-21.84 80.651 26.988 80.652-26.988 65.831 21.84z"/><path d="M741.812 169.98l-1.56 4.992-41.34-13.884-80.808 26.831-80.807-26.831-41.34 13.884-1.56-4.992 43.056-14.352 80.651 26.987 80.652-26.987 43.056 14.352z"/><path d="M719.192 192.599l-1.56 4.992-18.72-6.24-80.808 26.832-80.807-26.832-18.72 6.24-1.56-4.992 20.436-6.708 80.651 26.988 80.652-26.988 20.436 6.708zm-27.456 25.896l1.716 4.836-75.348 25.116-75.347-25.116 1.716-4.836 73.631 24.648 73.632-24.648zm-45.396 45.396l1.716 4.836-29.952 9.984-29.951-9.984 1.716-4.836 28.235 9.516 28.236-9.516z"/></g><defs><clipPath id="clip0"><path transform="rotate(-135 618.104 298.679)" fill="#fff" d="M618.104 298.679h650.155v650.155H618.104z"/></clipPath></defs></svg>
